X: 04080
T: RAPPAPORT'S JIG
C: Bob McQuillen 9 May 74
B: Bob's Note Book 04 #80
R: jig
Z: 2020 John Chambers <jc:trillian.mit.edu>
M: 6/8
L: 1/8
K: Em
B \
| eBe  ege | dBG AGA | BGE GAB | AFD DED |\
| B,EE GEE | GAB A2d | ede dBA | GEE E2 :|
|: B \
| efg efg | a2g fed | efg efg | gag g2f |\
| e2e dcB | cdc BAG | ABA GAG | FED E2 :|
%%begintext align
%% With love to Ruth Rappaport,
%% great piano player with
%% Timber Salvage. The
%% world rocks when Ruthie's
%% on the keys!
%%endtext

%%sep 1 1 500

%%sep 1 1 500

